assets/images/star-gold.svg

<svg width="33" height="32" viewBox="0 0 33 32" fill="none" xmlns="http://www.w3.org/2000/svg">
<path d="M15.5489 2.92705C15.8483 2.00574 17.1517 2.00574 17.4511 2.92705L19.8677 10.3647C20.0016 10.7768 20.3855 11.0557 20.8188 11.0557H28.6392C29.6079 11.0557 30.0107 12.2953 29.227 12.8647L22.9001 17.4615C22.5496 17.7161 22.403 18.1675 22.5369 18.5795L24.9535 26.0172C25.2529 26.9385 24.1984 27.7047 23.4147 27.1353L17.0878 22.5385C16.7373 22.2839 16.2627 22.2839 15.9122 22.5385L9.58533 27.1353C8.80162 27.7047 7.74714 26.9385 8.04649 26.0172L10.4631 18.5795C10.597 18.1675 10.4504 17.7161 10.0999 17.4615L3.77299 12.8647C2.98928 12.2953 3.39206 11.0557 4.36078 11.0557H12.1812C12.6145 11.0557 12.9984 10.7768 13.1323 10.3647L15.5489 2.92705Z" fill="#FE9A02"/>
</svg>

<svg width="33" height="32" fill="none" xmlns="http://www.w3.org/2000/svg"><path d="M15.549 2.927c.3-.921 1.603-.921 1.902 0l2.417 7.438a1 1 0 0 0 .95.69h7.821c.969 0 1.372 1.24.588 1.81L22.9 17.462a1 1 0 0 0-.363 1.117l2.416 7.438c.3.922-.755 1.688-1.538 1.118l-6.327-4.597a1 1 0 0 0-1.176 0l-6.327 4.597c-.783.57-1.838-.197-1.539-1.118l2.417-7.438a1 1 0 0 0-.363-1.117l-6.327-4.597c-.784-.57-.38-1.81.588-1.81h7.82a1 1 0 0 0 .951-.69l2.417-7.438Z" fill="#FE9A02"/></svg>
